bitrix/js/ui/buttons/icons/images/ui-add-folder-black.svg

<svg xmlns="http://www.w3.org/2000/svg" width="26" height="26" viewBox="0 0 26 26"><path fill="#535C69" d="M14 5H5v2h11l-2-2zm7 3H5v11h16V8zm-4 5v-2h-2v2h-2v2h2v2h2v-2h2v-2h-2z" fill-rule="evenodd"/></svg>

<svg xmlns="http://www.w3.org/2000/svg" width="26" height="26" viewBox="0 0 26 26"><g fill="none" fill-rule="evenodd"><path fill="#535C69" d="M13.99982,5 L5,5 L5,7 L16,7 L13.99982,5 Z M21,8 L5,8 L5,19 L21,19 L21,8 Z M17,13 L17,11 L15,11 L15,13 L13,13 L13,15 L15,15 L15,17 L17,17 L17,15 L19,15 L19,13 L17,13 Z"/></g></svg>
